dist/img/svg/icon-fb-2.svg

<svg width="30" height="30" viewBox="0 0 30 30" fill="none" xmlns="http://www.w3.org/2000/svg">
<rect x="5" y="6" width="19" height="18" fill="white"/>
<path d="M15 0C6.71562 0 0 6.71562 0 15C0 23.2844 6.71562 30 15 30C23.2844 30 30 23.2844 30 15C30 6.71562 23.2844 0 15 0ZM18.5531 10.3656H16.2984C16.0312 10.3656 15.7344 10.7172 15.7344 11.1844V12.8125H18.5547L18.1281 15.1344H15.7344V22.1047H13.0734V15.1344H10.6594V12.8125H13.0734V11.4469C13.0734 9.4875 14.4328 7.89531 16.2984 7.89531H18.5531V10.3656Z" fill="#3B589B"/>
</svg>

<svg width="30" height="30" viewBox="0 0 30 30" fill="none" xmlns="http://www.w3.org/2000/svg"><path fill="#fff" d="M5 6h19v18H5z"/><path d="M15 0C6.716 0 0 6.716 0 15c0 8.284 6.716 15 15 15 8.284 0 15-6.716 15-15 0-8.284-6.716-15-15-15zm3.553 10.366h-2.255c-.267 0-.564.351-.564.818v1.629h2.82l-.426 2.321h-2.394v6.97h-2.66v-6.97h-2.415v-2.322h2.414v-1.365c0-1.96 1.36-3.552 3.225-3.552h2.255v2.47z" fill="#3B589B"/></svg>
